src/assets/slett.svg

<?xml version="1.0" encoding="UTF-8"?>
<svg width="16px" height="16px" viewBox="0 0 16 16" version="1.1" xmlns="http://www.w3.org/2000/svg" xmlns:xlink="http://www.w3.org/1999/xlink">
    <!-- Generator: Sketch 54.1 (76490) - https://sketchapp.com -->
    <title>Fill/01-edition/bin-1 Copy</title>
    <desc>Created with Sketch.</desc>
    <g id="Page-1-(med-SP-og-BT)" stroke="none" stroke-width="1" fill="none" fill-rule="evenodd">
        <g id="steg-(7)-oppsummering-copy" transform="translate(-912.000000, -2163.000000)" fill="#0067C5">
            <g id="Fill/01-edition/bin-1" transform="translate(912.000000, 2163.000000)">
                <path d="M15.6666666,1.99999997 L13.6666666,1.99999997 L11.3333333,1.99999997 L11.3333333,0.333333301 C11.3333333,0.149333301 11.184,-3.33333337e-08 11,-3.33333337e-08 L5.66666664,-3.33333337e-08 C5.48266666,-3.33333337e-08 5.33333332,0.149333301 5.33333332,0.333333301 L5.33333332,1.99999997 L2.99999998,1.99999997 L0.999999971,1.99999997 C0.81599997,1.99999997 0.666666636,2.14933331 0.666666636,2.33333331 C0.666666636,2.51733331 0.81599997,2.66666664 0.999999971,2.66666664 L2.66666664,2.66666664 L2.66666664,15.6666667 C2.66666664,15.8506667 2.81599998,16 2.99999998,16 L13.6666666,16 C13.8506667,16 14,15.8506667 14,15.6666667 L14,2.66666664 L15.6666667,2.66666664 C15.8506667,2.66666664 16,2.51733331 16,2.33333331 C16,2.14933331 15.8506667,1.99999997 15.6666666,1.99999997 Z M5.99999999,12.3333334 C5.99999999,12.5173334 5.85066666,12.6666667 5.66666666,12.6666667 C5.48266666,12.6666667 5.33333332,12.5173334 5.33333332,12.3333334 L5.33333332,4.99999999 C5.33333332,4.81599999 5.48266666,4.66666665 5.66666666,4.66666665 C5.85066666,4.66666665 5.99999999,4.81599999 5.99999999,4.99999999 L5.99999999,12.3333334 Z M5.99999999,0.666666636 L10.6666667,0.666666636 L10.6666667,1.99999997 L5.99999999,1.99999997 L5.99999999,0.666666636 Z M8.66666667,12.3333334 C8.66666667,12.5173334 8.51733334,12.6666667 8.33333333,12.6666667 C8.14933333,12.6666667 8,12.5173334 8,12.3333334 L8,4.99999999 C8,4.81599999 8.14933333,4.66666665 8.33333333,4.66666665 C8.51733334,4.66666665 8.66666667,4.81599999 8.66666667,4.99999999 L8.66666667,12.3333334 Z M11.3333333,12.3333334 C11.3333333,12.5173334 11.184,12.6666667 11,12.6666667 C10.816,12.6666667 10.6666667,12.5173334 10.6666667,12.3333334 L10.6666667,4.99999999 C10.6666667,4.81599999 10.816,4.66666665 11,4.66666665 C11.184,4.66666665 11.3333333,4.81599999 11.3333333,4.99999999 L11.3333333,12.3333334 Z" id="Fill/bin-1"></path>
            </g>
        </g>
    </g>
</svg>

<?xml version="1.0" encoding="UTF-8"?>
<svg version="1.1" width="16px" height="16px" viewBox="0 0 16 16" xmlns="http://www.w3.org/2000/svg">
<title>Fill/01-edition/bin-1 Copy</title>
<desc>Created with Sketch.</desc>
<g fill="none" fill-rule="evenodd">
<g transform="translate(-912 -2163)" fill="#0067C5">
<g transform="translate(912 2163)">
<path d="m15.667 2h-2-2.3333v-1.6667c0-0.184-0.14933-0.33333-0.33333-0.33333h-5.3333c-0.184 0-0.33333 0.14933-0.33333 0.33333v1.6667h-2.3333-2c-0.184 0-0.33333 0.14933-0.33333 0.33333s0.14933 0.33333 0.33333 0.33333h1.6667v13c0 0.184 0.14933 0.33333 0.33333 0.33333h10.667c0.184 0 0.33333-0.14933 0.33333-0.33333v-13h1.6667c0.184 0 0.33333-0.14933 0.33333-0.33333s-0.14933-0.33333-0.33333-0.33333zm-9.6667 10.333c0 0.184-0.14933 0.33333-0.33333 0.33333s-0.33333-0.14933-0.33333-0.33333v-7.3333c0-0.184 0.14933-0.33333 0.33333-0.33333s0.33333 0.14933 0.33333 0.33333v7.3333zm0-11.667h4.6667v1.3333h-4.6667v-1.3333zm2.6667 11.667c0 0.184-0.14933 0.33333-0.33333 0.33333-0.184 0-0.33333-0.14933-0.33333-0.33333v-7.3333c0-0.184 0.14933-0.33333 0.33333-0.33333 0.184 0 0.33333 0.14933 0.33333 0.33333v7.3333zm2.6667 0c0 0.184-0.14933 0.33333-0.33333 0.33333s-0.33333-0.14933-0.33333-0.33333v-7.3333c0-0.184 0.14933-0.33333 0.33333-0.33333s0.33333 0.14933 0.33333 0.33333v7.3333z"/>
</g>
</g>
</g>
</svg>
